bundles/org.openhab.ui.habpanel/web/assets/icons/smarthome-set/houseplant.svg

<?xml version="1.0" encoding="UTF-8" standalone="no"?>
<svg width="32px" height="32px" viewBox="0 0 32 32" version="1.1" xmlns="http://www.w3.org/2000/svg" xmlns:xlink="http://www.w3.org/1999/xlink" xmlns:sketch="http://www.bohemiancoding.com/sketch/ns">
    <!-- Generator: Sketch 3.3.2 (12043) - http://www.bohemiancoding.com/sketch -->
    <title>houseplant</title>
    <desc>Created with Sketch.</desc>
    <defs></defs>
    <g id="flatten" stroke="none" stroke-width="1" fill="none" fill-rule="evenodd" sketch:type="MSPage">
        <g id="z-copy" sketch:type="MSArtboardGroup" transform="translate(-100.000000, -100.000000)" fill="#000000">
            <g id="houseplant" sketch:type="MSLayerGroup" transform="translate(100.000000, 100.000000)">
                <path d="M10.1435881,25.4905179 C10.286009,26.7050605 10.531254,27.9706077 10.8919121,29.2887103 C6.25942062,27.4175104 3.57173247,24.180341 2.39781526,19.889403 C1.54190101,16.760839 1.56931096,13.3702525 2.13724518,10.1783222 C2.1501971,10.1055292 2.17646546,9.96330988 2.17646546,9.96330988 C2.17646546,9.96330988 2.33770347,10.0208429 2.92620872,10.2769757 C4.60998953,11.0098007 6.29364519,11.9318703 7.85704035,13.0517448 C9.19214306,14.0080913 10.3087445,15.0188915 11.223018,16.0899229 L11.223018,16.0899229 C10.426841,18.1910249 9.96797687,20.5297906 9.99206994,23.1241613 L5.43414987,14.7605739 C5.30203551,14.5181498 4.99858593,14.4288208 4.75637627,14.5610522 C4.51416661,14.6932836 4.42491674,14.9970019 4.5570311,15.2394261 L10.1435881,25.4905179 L10.1435881,25.4905179 Z M13.0333542,29.4136738 C10.9912074,19.9059085 11.088992,14.922477 21.5133004,6.73565972 C23.6127007,5.0868782 25.9746706,4.01306759 28.2881453,3.03596757 C29.0967374,2.69445726 29.3182746,2.61774651 29.3182746,2.61774651 C29.3182746,2.61774651 29.3543667,2.80737221 29.3721623,2.90442957 C30.1524904,7.1603367 30.190151,11.6811187 29.0141452,15.8525373 C27.1508473,22.4618551 22.5118613,27.1961122 14.1841552,29.413553 L25.4116309,9.74806947 C25.5485147,9.50831075 25.46529,9.20288341 25.2257434,9.06587843 C24.9861969,8.92887344 24.6810398,9.01217181 24.544156,9.25193053 L13.0333542,29.4136738 L13.0333542,29.4136738 L13.0333542,29.4136738 Z M13.4880693,32 C38.9655056,25.5 30.755735,0 30.755735,0 C30.755735,0 17.0308715,3.72274828 11.9893965,14.5 C7.99293593,9 0.873098889,8 0.873098889,8 C-3.99644586,30.5 13.4880693,32 13.4880693,32 Z" sketch:type="MSShapeGroup"></path>
            </g>
        </g>
    </g>
</svg>

<svg width="32" height="32" xmlns="http://www.w3.org/2000/svg"><path d="M10.144 25.49c.142 1.215.387 2.48.748 3.799-4.633-1.871-7.32-5.109-8.494-9.4-.856-3.128-.829-6.519-.26-9.71l.038-.216s.162.058.75.314a26.994 26.994 0 0 1 4.931 2.775c1.335.956 2.452 1.967 3.366 3.038-.796 2.101-1.255 4.44-1.23 7.034l-4.559-8.363a.5.5 0 1 0-.877.478l5.587 10.252Zm2.89 3.924c-2.043-9.508-1.945-14.492 8.48-22.678 2.099-1.65 4.46-2.723 6.774-3.7.809-.342 1.03-.418 1.03-.418l.054.286c.78 4.256.818 8.777-.358 12.949-1.863 6.609-6.502 11.343-14.83 13.56L25.412 9.749a.5.5 0 0 0-.868-.496l-11.51 20.162ZM13.487 32C38.966 25.5 30.756 0 30.756 0S17.03 3.723 11.989 14.5C7.993 9 .873 8 .873 8c-4.87 22.5 12.615 24 12.615 24Z" fill="#000" fill-rule="evenodd"/></svg>
